X:3828
T:Danza (Teberga 3)
C:Trad
Z:Teberga
M:2/4
L:1/8
Q:1/4=100
K:Cm
CD|: EC D_B,|CC DE|FD EF|G2 G2-|G2 GG|GG FF|
|ED GG|GG FF|ED FE|DC _B,C|D2 C2-|[1 C2 CD :|[2 C2 z2|
